src/images/clients/shorts.svg

<svg width="140" height="50" viewBox="0 0 140 50" fill="none" xmlns="http://www.w3.org/2000/svg">
<path d="M7.48078 30.1695C6.57346 29.6318 5.76695 29.1614 4.92684 28.6909C2.54092 27.3131 0.726282 25.2968 0.25582 22.5749C-0.483479 18.2063 0.188613 14.5098 4.82603 11.7206C10.6732 8.22576 16.5876 4.89892 22.502 1.50486C28.282 -1.78837 35.9102 2.04253 36.7839 8.66262C37.3888 12.6952 35.4061 16.6605 31.8104 18.6095C31.0375 19.0464 30.231 19.5169 29.3573 20.0545C30.231 20.5586 30.9703 21.0291 31.7432 21.4659C37.8928 24.9272 38.6993 33.0931 33.289 37.5961C32.2137 38.4698 30.9367 39.1083 29.7269 39.814C24.6527 42.7712 19.5448 45.7284 14.4369 48.6183C9.69868 51.1723 3.78429 49.3576 1.23035 44.6194C-1.18917 40.1164 0.289424 34.5381 4.5908 31.8161C5.56533 31.312 6.47265 30.7744 7.48078 30.1695ZM13.6976 32.4882L26.4001 25.1288L13.6976 17.803V32.4882Z" fill="black"/>
<path d="M64.642 42.4351V6.71355H70.1867V19.8193C70.3547 19.5505 70.59 19.1808 70.8588 18.8112C72.7071 16.3244 76.7396 15.8876 78.6887 18.0719C79.2599 18.7776 79.6968 19.6177 79.8984 20.4914C80.1337 21.3651 80.2345 22.2388 80.2345 23.1461C80.2681 29.3966 80.2345 35.647 80.2345 41.8974C80.2345 42.0655 80.2345 42.2335 80.2009 42.4351H74.5217V41.6622C74.5217 35.7142 74.5217 29.7662 74.5217 23.8182C74.5217 23.2134 74.4545 22.5749 74.2865 21.97C74.0176 21.0291 73.2783 20.6258 72.3038 20.7938C71.094 20.9619 70.2203 22.0372 70.2875 23.247V42.4351H64.642Z" fill="black"/>
<path d="M46.7644 32.6898H51.9731C51.9731 33.4627 51.9395 34.2692 51.9731 35.0421C52.0067 35.647 52.1076 36.2855 52.2756 36.8568C52.6452 38.1674 53.4853 38.7386 54.7623 38.6714C56.0393 38.6042 56.8122 37.8985 57.081 36.6215C57.6523 33.5971 56.7786 30.976 54.5943 28.8253C53.1157 27.3803 51.5363 26.0361 50.0241 24.6247C46.3276 21.1971 45.7899 16.8957 46.8317 12.2583C47.3693 9.87238 49.0495 8.39378 51.4019 7.7553C53.2837 7.25123 55.2664 7.18402 57.1818 7.58728C59.6686 8.12495 61.248 9.56994 61.9201 12.0567C62.4241 13.9385 62.3905 15.8204 62.1553 17.7694L57.081 18.1055C56.9802 16.7613 56.913 15.4507 56.8122 14.1738C56.7786 13.9385 56.745 13.6697 56.6778 13.4345C56.3417 12.1911 55.6696 11.6534 54.4599 11.687C53.2501 11.7206 52.3764 12.2583 52.1076 13.4681C51.5027 16.0892 51.9395 18.4415 53.9222 20.3906C55.636 22.0708 57.3498 23.7174 59.0973 25.364C63.0626 29.1277 63.5331 33.7316 62.0881 38.705C61.4832 40.7549 60.0046 41.9983 57.9211 42.5359C55.9049 43.0736 53.8214 43.1408 51.7715 42.704C48.7807 42.0991 47.1677 40.4189 46.6972 37.3945C46.462 35.8822 46.4956 34.2692 46.7644 32.6898Z" fill="black"/>
<path d="M82.4187 29.9679C82.6203 27.6155 82.7211 25.2968 83.0572 22.9781C83.2588 21.9028 83.6284 20.861 84.1661 19.8865C84.939 18.3407 86.2832 17.4334 87.9634 17.0301C89.5428 16.6605 91.1558 16.6269 92.7353 16.9293C95.6252 17.467 97.171 19.416 97.7423 22.138C98.0784 23.8518 98.28 25.5657 98.3136 27.3131C98.3808 30.4383 98.5152 33.5635 97.9439 36.6551C97.7759 37.5289 97.5407 38.4026 97.171 39.2091C96.499 40.8557 95.0876 42.0991 93.3401 42.5023C91.4247 43.0064 89.4084 43.0064 87.493 42.5023C84.7038 41.763 83.4604 39.6123 83.0572 37.0248C82.6539 34.7061 82.5867 32.3202 82.4187 29.9679ZM92.6344 29.9006H92.5C92.5 28.0188 92.5672 26.1369 92.4664 24.2551C92.3992 23.3814 92.2312 22.5413 91.9287 21.7348C91.5927 20.8946 90.6854 20.4914 89.8453 20.7938C89.4084 20.9619 89.0724 21.2979 88.9043 21.7348C88.6355 22.4741 88.4339 23.2806 88.4003 24.0535C88.3331 27.918 88.3331 31.7825 88.4003 35.6134C88.4675 36.4199 88.6355 37.26 88.938 37.9993C89.1396 38.6042 89.7445 39.0075 90.4165 38.9402C91.055 39.0075 91.6599 38.6378 91.9287 38.0329C92.164 37.5961 92.2984 37.092 92.3656 36.5879C92.5 34.4036 92.5672 32.1521 92.6344 29.9006Z" fill="black"/>
<path d="M125.6 34.7397H130.372C130.473 35.6806 130.641 36.6215 130.876 37.5288C131.179 38.5706 132.187 39.2091 133.229 39.041C134.875 38.8058 135.749 37.26 134.909 35.7478C134.371 34.8741 133.699 34.1012 132.893 33.4627C131.414 32.1857 129.835 31.0432 128.356 29.7662C125.634 27.3131 125.13 24.2215 126.004 20.8274C126.508 18.8447 127.919 17.6686 129.868 17.1645C131.716 16.6605 133.666 16.6269 135.514 17.0637C137.9 17.635 139.244 19.1808 139.647 21.9028C139.815 23.0453 139.815 24.2215 139.882 25.4984L137.396 25.6329L135.077 25.7337C134.943 24.5911 134.875 23.5158 134.674 22.4404C134.438 21.2643 133.766 20.7602 132.624 20.8274C131.212 20.8946 130.54 21.7347 130.641 23.1461C130.675 24.2551 131.212 25.2968 132.12 26.0025C133.666 27.2459 135.245 28.422 136.791 29.6654C138.236 30.8415 139.58 32.1857 139.849 34.1012C140.05 35.5798 140.05 37.0584 139.849 38.537C139.513 40.6205 138.101 41.9646 136.051 42.6031C134.002 43.2416 131.817 43.2752 129.734 42.7039C127.348 42.0654 125.869 40.3852 125.668 37.8985C125.533 36.8904 125.6 35.8822 125.6 34.7397Z" fill="black"/>
<path d="M120.325 21.7011C120.325 26.7418 120.291 31.6817 120.325 36.6215C120.325 38.4698 120.728 38.7386 122.576 38.4362C122.946 38.369 123.282 38.2682 123.752 38.1673C123.988 39.3771 124.223 40.5869 124.458 41.8302C122.173 42.7375 119.921 43.1408 117.536 42.6703C116.393 42.5023 115.486 41.6286 115.284 40.5197C115.015 39.3099 114.847 38.1001 114.814 36.8568C114.78 32.0849 114.78 27.3467 114.78 22.6085V21.802H112.764V17.299C113.335 17.299 113.873 17.2654 114.41 17.299C114.948 17.3326 115.082 17.1645 115.116 16.6605C115.284 14.5434 115.519 12.4599 115.721 10.3428C115.721 10.1748 115.788 10.0404 115.822 9.83877H120.022V17.299H123.853V21.7011H120.325Z" fill="black"/>
<path d="M111.453 16.8285C111.352 19.0464 111.285 21.1971 111.184 23.3142C110.142 23.3142 109.168 23.247 108.193 23.3478C107.689 23.4486 107.185 23.6502 106.782 23.9863C106.278 24.3223 106.009 24.9272 106.043 25.5321C106.076 30.9088 106.043 36.2855 106.043 41.6622V42.4351H100.599V17.2318H104.934C105.102 19.0464 105.27 20.8611 105.438 22.6421H105.572C105.673 22.0036 105.841 21.3987 106.043 20.7939C106.412 19.8529 106.883 18.9456 107.454 18.1055C108.395 16.8285 109.806 16.4925 111.453 16.8285Z" fill="black"/>
<path d="M13.6976 32.4882V17.803L26.4001 25.1288L13.6976 32.4882Z" fill="#FEF9F9"/>
</svg>

<svg xmlns="http://www.w3.org/2000/svg" width="140" height="50" fill="none" viewBox="0 0 140 50"><path fill="#000" d="M7.48 30.17a118.516 118.516 0 0 0-2.553-1.48C2.54 27.314.727 25.298.256 22.576c-.74-4.369-.067-8.065 4.57-10.854 5.847-3.495 11.762-6.822 17.676-10.216 5.78-3.293 13.408.538 14.282 7.158a9.671 9.671 0 0 1-4.974 9.947 75.79 75.79 0 0 0-2.453 1.445c.874.504 1.613.974 2.386 1.41 6.15 3.462 6.956 11.628 1.546 16.131-1.075.874-2.352 1.512-3.562 2.218a1381.017 1381.017 0 0 1-15.29 8.804c-4.738 2.554-10.653.74-13.207-3.999a9.704 9.704 0 0 1 3.36-12.803c.975-.504 1.883-1.042 2.89-1.646Zm6.218 2.318 12.702-7.36-12.702-7.325v14.685ZM64.642 42.435V6.714h5.545v13.105c.168-.268.403-.638.672-1.008 1.848-2.487 5.88-2.923 7.83-.74.57.707 1.008 1.547 1.21 2.42.235.874.335 1.748.335 2.655.034 6.25 0 12.501 0 18.751 0 .169 0 .337-.033.538h-5.68V23.818c0-.605-.067-1.243-.234-1.848-.27-.94-1.009-1.344-1.983-1.176a2.349 2.349 0 0 0-2.017 2.453v19.188h-5.645ZM46.764 32.69h5.21c0 .773-.034 1.58 0 2.352.033.605.134 1.243.302 1.815.37 1.31 1.21 1.882 2.486 1.814 1.277-.067 2.05-.773 2.319-2.05.571-3.024-.302-5.645-2.487-7.796-1.478-1.445-3.058-2.789-4.57-4.2-3.696-3.428-4.234-7.73-3.192-12.367.537-2.386 2.218-3.864 4.57-4.503a12.446 12.446 0 0 1 5.78-.168c2.487.538 4.066 1.983 4.738 4.47.504 1.881.47 3.763.235 5.712l-5.074.337c-.1-1.345-.168-2.655-.269-3.932-.033-.236-.067-.504-.134-.74-.336-1.243-1.008-1.78-2.218-1.747-1.21.034-2.084.571-2.352 1.781-.605 2.621-.168 4.974 1.814 6.923a360.939 360.939 0 0 0 5.175 4.973c3.966 3.764 4.436 8.368 2.991 13.341-.605 2.05-2.083 3.293-4.167 3.83a13.12 13.12 0 0 1-6.15.169c-2.99-.605-4.603-2.285-5.074-5.31-.235-1.512-.201-3.125.067-4.704ZM82.419 29.968c.201-2.352.302-4.671.638-6.99a10.328 10.328 0 0 1 1.11-3.091c.772-1.546 2.116-2.454 3.796-2.857 1.58-.37 3.193-.403 4.772-.1 2.89.537 4.436 2.486 5.007 5.208.336 1.714.538 3.428.572 5.175.067 3.125.201 6.25-.37 9.342-.168.874-.403 1.748-.773 2.554-.672 1.647-2.083 2.89-3.83 3.293a11.493 11.493 0 0 1-5.848 0c-2.79-.739-4.033-2.89-4.436-5.477-.403-2.319-.47-4.705-.638-7.057Zm10.215-.067H92.5c0-1.882.067-3.764-.034-5.646a9.113 9.113 0 0 0-.537-2.52 1.63 1.63 0 0 0-2.084-.941 1.624 1.624 0 0 0-.94.94c-.27.74-.471 1.547-.505 2.32a331.45 331.45 0 0 0 0 11.56c.067.806.235 1.646.538 2.385a1.402 1.402 0 0 0 1.478.941c.639.068 1.244-.302 1.513-.907.235-.437.37-.941.437-1.445.134-2.184.201-4.436.268-6.687ZM125.6 34.74h4.772c.101.94.269 1.881.504 2.789a2.106 2.106 0 0 0 2.353 1.512c1.646-.235 2.52-1.781 1.68-3.293a8.748 8.748 0 0 0-2.016-2.285c-1.479-1.277-3.058-2.42-4.537-3.697-2.722-2.453-3.226-5.544-2.352-8.939.504-1.982 1.915-3.158 3.864-3.663a11.476 11.476 0 0 1 5.646-.1c2.386.571 3.73 2.117 4.133 4.839.168 1.142.168 2.319.235 3.595l-2.486.135-2.319.1c-.134-1.142-.202-2.217-.403-3.293-.236-1.176-.908-1.68-2.05-1.613-1.412.068-2.084.908-1.983 2.32.034 1.108.571 2.15 1.479 2.856 1.546 1.243 3.125 2.419 4.671 3.662 1.445 1.177 2.789 2.52 3.058 4.436a16.39 16.39 0 0 1 0 4.436c-.336 2.084-1.748 3.428-3.798 4.066a11.22 11.22 0 0 1-6.317.1c-2.386-.638-3.865-2.318-4.066-4.805-.135-1.008-.068-2.016-.068-3.158ZM120.325 21.701c0 5.04-.034 9.98 0 14.92 0 1.849.403 2.118 2.251 1.815.37-.067.706-.168 1.176-.269.236 1.21.471 2.42.706 3.663-2.285.907-4.537 1.31-6.922.84a2.679 2.679 0 0 1-2.252-2.15 19.118 19.118 0 0 1-.47-3.663c-.034-4.772-.034-9.51-.034-14.248v-.807h-2.016v-4.503c.571 0 1.109-.034 1.646 0 .538.034.672-.134.706-.639.168-2.117.403-4.2.605-6.317 0-.168.067-.303.101-.504h4.2v7.46h3.831v4.402h-3.528ZM111.453 16.828c-.101 2.218-.168 4.37-.269 6.486-1.042 0-2.016-.067-2.991.034-.504.1-1.008.302-1.411.638-.504.336-.773.941-.739 1.546.033 5.377 0 10.753 0 16.13v.773h-5.444V17.232h4.335c.168 1.814.336 3.63.504 5.41h.134c.101-.638.269-1.243.471-1.848.369-.941.84-1.848 1.411-2.689.941-1.277 2.352-1.613 3.999-1.277Z"/><path fill="#FEF9F9" d="M13.698 32.488V17.803L26.4 25.129l-12.702 7.36Z"/></svg>
